src/assets/svg/trash-can.svg

<svg fill="none" height="20" viewBox="0 0 20 20" width="20" xmlns="http://www.w3.org/2000/svg"><path d="m18.3333 5.20833c0 .46084-.3733.83334-.8333.83334h-15.00004c-.46 0-.83333-.3725-.83333-.83334 0-.46083.37333-.83333.83333-.83333h2.96585c.35917 0 .67665-.2284.79081-.57007l.26332-.79c.2275-.68166.86336-1.13993 1.58086-1.13993h3.7992c.7183 0 1.3541.45829 1.5808 1.13912l.2633.79163c.1133.34.4317.56925.7909.56925h2.965c.46 0 .8333.3725.8333.83333zm-2.25 2.52503-.5083 7.66664c-.1084 1.5333-1.3917 2.725-2.9167 2.725h-5.31668c-1.525 0-2.80833-1.1917-2.91666-2.7167l-.50832-7.67494c-.00834-.10834.03333-.2251.10833-.30843.08334-.08334.19167-.13326.30833-.13326h11.3333c.1167 0 .225.04992.3083.13326.075.08333.1167.20009.1084.30843zm-6.91667 2.47494c0-.4583-.375-.8333-.83334-.8333-.45833 0-.83333.375-.83333.8333v4.1667c0 .4583.375.8333.83333.8333.45834 0 .83334-.375.83334-.8333zm3.33337 0c0-.4583-.375-.8333-.8334-.8333-.4583 0-.8333.375-.8333.8333v4.1667c0 .4583.375.8333.8333.8333.4584 0 .8334-.375.8334-.8333z" fill="#eb5757" fill-opacity=".8"/></svg>

<svg width="20" height="20" viewBox="0 0 20 20" fill="none" xmlns="http://www.w3.org/2000/svg">
<path d="M18.3333 5.20833C18.3333 5.66917 17.96 6.04167 17.5 6.04167H2.49996C2.03996 6.04167 1.66663 5.66917 1.66663 5.20833C1.66663 4.7475 2.03996 4.375 2.49996 4.375H5.46581C5.82498 4.375 6.14246 4.1466 6.25662 3.80493L6.51994 3.01493C6.74744 2.33327 7.3833 1.875 8.1008 1.875H11.9C12.6183 1.875 13.2541 2.33329 13.4808 3.01412L13.7441 3.80575C13.8574 4.14575 14.1758 4.375 14.535 4.375H17.5C17.96 4.375 18.3333 4.7475 18.3333 5.20833ZM16.0833 7.73336L15.575 15.4C15.4666 16.9333 14.1833 18.125 12.6583 18.125H7.34162C5.81662 18.125 4.53329 16.9333 4.42496 15.4083L3.91664 7.73336C3.9083 7.62502 3.94997 7.50826 4.02497 7.42493C4.10831 7.34159 4.21664 7.29167 4.3333 7.29167H15.6666C15.7833 7.29167 15.8916 7.34159 15.9749 7.42493C16.0499 7.50826 16.0916 7.62502 16.0833 7.73336ZM9.16663 10.2083C9.16663 9.75 8.79163 9.375 8.33329 9.375C7.87496 9.375 7.49996 9.75 7.49996 10.2083V14.375C7.49996 14.8333 7.87496 15.2083 8.33329 15.2083C8.79163 15.2083 9.16663 14.8333 9.16663 14.375V10.2083ZM12.5 10.2083C12.5 9.75 12.125 9.375 11.6666 9.375C11.2083 9.375 10.8333 9.75 10.8333 10.2083V14.375C10.8333 14.8333 11.2083 15.2083 11.6666 15.2083C12.125 15.2083 12.5 14.8333 12.5 14.375V10.2083Z" fill="#EB5757" fill-opacity="0.8"/>
</svg>
